blockchains/stratis/logo.svg

<svg fill="none" height="256" viewBox="0 0 256 256" width="256" xmlns="http://www.w3.org/2000/svg"><path d="m5.20011 168c1.8-2.8 3.4-5.2 5.19999-8l3 1.8c37.6 24.2 75.4 48.4 112.9999 72.8 2.2 1.4 3.6 1.6 5.8 0 35.8-23.2 71.8-46.2 107.8-69.2 4.2-2.6 6.4-6 6.2-11s0-10 0-15.8c-1.4.8-2.6 1.4-3.6 2-36 23-72 45.8-108 68.8-4.4 2.8-8.2 3-12.6.2-36.5999-23.4-73.1999-46.8-109.9999-69.8-7.99999-5-11.99998685-11.6-11.599987-21.2.4-7 0-14 0-21.0003 0-3.2 1.199997-5.6 3.999997-7.4 39.59999-26.2 79.59999-52.2 119.39989-78.2 1.6-1 3.2-2.4 5-2.6 2.2-.2 4.8.2 6.4 1.4 38.8 24.6 77.6 49.2 116.4 74 6 3.8 5.6 10.2-.6 14l-89.4 56.4003c-8.8 5.6-17.6 10.8-26.2 16.6-4.2 2.8-7.8 2.8-12.2 0-36.3999-23-73.1999-46-109.7999-69-1-.6-2-1.2-3.4-2 0 7.6-.19999 14.8 0 22 .2 3.6 2.8 6 5.8 7.8l86.9999 55.2c7.6 4.8 15 9.4 22.4 14.4 1.8 1.2 3.2 1.2 5.2 0 36.8-23.6 73.8-47.2 110.8-70.6 1-.6 2-1.4 3-1.8 5.4-2.6 11.2.6 11.4 6.6.2 7.8.2 15.6 0 23.4-.2 6.8-3.8 11.6-9.6 15.2-24.4 15.6-48.8 31.2-73.2 47-12.8 8.2-25.8 16.4-38.6 24.8-3.6 2.4-6.8 2.4-10.4 0-38.7999-25.2-77.9999-50.4-116.99989-75.6-.6-.2-1-.6-1.6-1.2zm11.99999-74.8003c.8.8 1.6 1.2 2.2 1.8 36 22.6003 72 45.2003 107.7999 67.8003 1.8 1.2 3 .8 4.6-.2 36.4-23 72.8-46 109.2-68.8003.8-.6 1.8-1.2 2.8-2-.8-.6-1.2-1-1.8-1.4-36.4-23.2-72.8-46.4-109.4-69.6-2-1.4-3.4-.6-5 .4-24.8 16.2-49.7999 32.6-74.5999 48.8-12 7.6-23.8 15.4-35.8 23.2z" fill="#2a8ac7"/></svg>

<svg width="256" height="256" viewBox="0 0 256 256" fill="none" xmlns="http://www.w3.org/2000/svg">
<path d="M5.20011 168C7.00011 165.2 8.60011 162.8 10.4001 160L13.4001 161.8C51.0001 186 88.8001 210.2 126.4 234.6C128.6 236 130 236.2 132.2 234.6C168 211.4 204 188.4 240 165.4C244.2 162.8 246.4 159.4 246.2 154.4C246 149.4 246.2 144.4 246.2 138.6C244.8 139.4 243.6 140 242.6 140.6C206.6 163.6 170.6 186.4 134.6 209.4C130.2 212.2 126.4 212.4 122 209.6C85.4001 186.2 48.8001 162.8 12.0001 139.8C4.00011 134.8 0.000113152 128.2 0.400113 118.6C0.800113 111.6 0.400113 104.6 0.400113 97.5997C0.400113 94.3997 1.60011 91.9997 4.40011 90.1997C44.0001 63.9997 84.0001 37.9997 123.8 11.9997C125.4 10.9997 127 9.5997 128.8 9.3997C131 9.1997 133.6 9.5997 135.2 10.7997C174 35.3997 212.8 59.9997 251.6 84.7997C257.6 88.5997 257.2 94.9997 251 98.7997L161.6 155.2C152.8 160.8 144 166 135.4 171.8C131.2 174.6 127.6 174.6 123.2 171.8C86.8001 148.8 50.0001 125.8 13.4001 102.8C12.4001 102.2 11.4001 101.6 10.0001 100.8C10.0001 108.4 9.80011 115.6 10.0001 122.8C10.2001 126.4 12.8001 128.8 15.8001 130.6L102.8 185.8C110.4 190.6 117.8 195.2 125.2 200.2C127 201.4 128.4 201.4 130.4 200.2C167.2 176.6 204.2 153 241.2 129.6C242.2 129 243.2 128.2 244.2 127.8C249.6 125.2 255.4 128.4 255.6 134.4C255.8 142.2 255.8 150 255.6 157.8C255.4 164.6 251.8 169.4 246 173C221.6 188.6 197.2 204.2 172.8 220C160 228.2 147 236.4 134.2 244.8C130.6 247.2 127.4 247.2 123.8 244.8C85.0001 219.6 45.8001 194.4 6.80011 169.2C6.20011 169 5.80011 168.6 5.20011 168ZM17.2001 93.1997C18.0001 93.9997 18.8001 94.3997 19.4001 94.9997C55.4001 117.6 91.4001 140.2 127.2 162.8C129 164 130.2 163.6 131.8 162.6C168.2 139.6 204.6 116.6 241 93.7997C241.8 93.1997 242.8 92.5997 243.8 91.7997C243 91.1997 242.6 90.7997 242 90.3997C205.6 67.1997 169.2 43.9997 132.6 20.7997C130.6 19.3997 129.2 20.1997 127.6 21.1997C102.8 37.3997 77.8001 53.7997 53.0001 69.9997C41.0001 77.5997 29.2001 85.3997 17.2001 93.1997Z" fill="#2A8AC7"/>
</svg>
